X: 40512
T: Tommy Gunn's
R: reel
M: 4/4
K: Gmajor
DF|G2 BG AGBG|G2 BG GEDF|GFGB A^GAB|BAGE EDDF|
G2 BG AGBG|G2 BG GEDF|GFGB A^GAB|BAGE EDD^c||
|:~d3 B3 AB|d^cd B3 AB|~d3 B3 cB|BAGE EDD^c:|
|:dgbg agbg|dgbg ageg|gfge d^cdB|1 BAGE EDD^c:|2 BAGE EDDg||
|:edBg edBg|edBA G ~E3|B,EGB edBA|GFGE EDDg|
edBg edBg|edBA G ~E3|dA (3B^cd ed g2|GFGE EDDF:|

